X:1
T:One Summer Night
T:One Summer Night
C:Danny Webb
Z:All Rights Reserved
L:1/8
M:4/4
K:A
V:1 treble nm="Melody" snm="Choir"
%%MIDI program 53
V:1
"A " z e2 c/B/ (3cBA- A2 |"D " z F2 G/A/"E7" cB- B2 |"A " z e2 c/B/ (3cBA- A2 | %3
w: One sum- mer ni- gh- t *|we fell in lo- ve. *|One sum- mer ni- gh- t *|
"D " z F2 G/A/"E7" cB- B2 |"A " AB- Bc (3cBA- A2 |"E " z F2 G/A/ cB- Bc |"A " (3cBA- A4 z2 | %7
w: I held you ti- ght. *|Yo- u * and I\- I\- I *|un- der the mo- on * of|lo- o \-ve. *|
"D " d4"E " e4 |"A " z e2 c/B/ (3cBA- A2 |"D " z F2 G/A/"E7" cB- B2 |"A " z e2 c/B/ (3cBA- A2 | %11
w: |One sum- mer ni- gh- t *|I kissed your li- ps. *|One sum- mer ni- gh- t *|
"D " z F2 G/A/"E7" cB- B2 |"A " AB- Bc (3cBA- A2 |"E " z F2 G/A/ cB- Bc |"A " (3cBA- A2 Bc- cB | %15
w: I held you clo- ose. *|Yo- u * and I\- I\- I *|Un- der the mo- on * of|lo- o\- ove, * mo- on * of|
"Bmin7" (3cBA- A2"A " z2 A2 |"D/A" ff- f2 z"Bmin7" f ed |"D " (3fed- d2"G " z a2 f/e/ | %18
w: lo- o\- ove. * You|kissed me * O\- oh so|ten- der- ly * and I\- I|
"A " (3afe- e2 z f2 e |"A " (3fec e4 (3cBA |"G " dd- d4 (3dBA |"D " (3dBA- A4 z e | %22
w: kn- ew- ew * this was|lo- o\- o\- ove and as I|held you * o\- oh so|clo- o\- ose * I|
"E9" ff ff ff gf |"E7" (3gfe (3gfe e2 e/f/e/c/ |"A " z e2 c/B/ (3cBA- A2 | %25
w: knew no one could e\- ver take your|pl- a\- a\- a\- a\- a\- ace. O\- o\- o\- oh|one sum- mer ni- gh- t *|
"D " z F2 G/A/"E7" cB- B2 |"A " z e2 c/B/ (3cBA- A2 |"D " z F2 G/A/"E7" cB- B2 | %28
w: we fell in lo- ve. *|One sum- mer ni- gh- t *|I held you ti- ght. *|
"A " AB- Bc (3cBA- A2 |"D " z F GA"E7" (3BcB- Bc |"A " (3cBA- A4 z2 |"Bmin7" f4"D " f4 |"A " a8 |] %33
w: Yo- u * and I\- I\- I *|un- der the mo- o\- on * of|lo- o \-ve. *|Moon of|Love!|

